X: 1
T: Polska frn Sdra Dalarna
C: Trad
O: efter Olle Wallman
M: 3/4
L: 1/8
K: G
E \
|: "G"D>C B,>D G>B | Bd g2 B>g | "D7"f>e c>A F>A |1,3 "G"G2 GE :|2,4 "G"G2 G3 :|
B \
|: "G"d>g b2- b>a | "C"g>f e>d c>B |1,3 "D7"Ad f2- f>e | "G"d>c B>A G>B :|2,4 "D7"A>G F>A d>F | "G" G2 G3 :|
